Papirus-Dark/16x16/actions/quickopen-class.svg

<?xml version="1.0" encoding="UTF-8" standalone="no"?>
<!--Created with Inkscape (http://www.inkscape.org/)-->
<svg id="svg3049" xmlns:rdf="http://www.w3.org/1999/02/22-rdf-syntax-ns#" xmlns="http://www.w3.org/2000/svg" height="16" width="16" version="1.1" xmlns:cc="http://creativecommons.org/ns#" xmlns:dc="http://purl.org/dc/elements/1.1/">
 <defs id="defs3051">
 </defs>
 <metadata id="metadata3054">
  <rdf:RDF>
   <cc:Work rdf:about="">
    <dc:format>image/svg+xml</dc:format>
    <dc:type rdf:resource="http://purl.org/dc/dcmitype/StillImage"/>
    <dc:title/>
   </cc:Work>
  </rdf:RDF>
 </metadata>
 <g id="layer1" transform="translate(-421.71 -531.79)">
  <path id="rect4531" opacity="1" fill="#d3dae3" style="fill:#d3dae3" transform="translate(421.71 531.79)" d="m4 1l-3 4h2v3l3-4h-2v-3zm6 0v2h-2v10h2v2h5v-5h-5v2h-1v-8h1v2h5v-5h-5z"/>
 </g>
</svg>

<?xml version="1.0" encoding="UTF-8" standalone="no"?>
<svg xmlns="http://www.w3.org/2000/svg" width="16" height="16" viewBox="0 0 16 16">
 <defs>
  <style type="text/css" id="current-color-scheme">
   .ColorScheme-Text { color:#d3dae3; }
  </style>
 </defs>
 <path style="fill:currentColor;opacity:1" class="ColorScheme-Text" d="M 4 1 L 1 5 L 3 5 L 3 8 L 6 4 L 4 4 L 4 1 z M 10 1 L 10 3 L 8 3 L 8 13 L 10 13 L 10 15 L 15 15 L 15 10 L 10 10 L 10 12 L 9 12 L 9 4 L 10 4 L 10 6 L 15 6 L 15 1 L 10 1 z"/>
</svg>
